icons/1_Primary/Wykop.pl.svg

<svg xmlns="http://www.w3.org/2000/svg" width="1024" height="1024" fill="none">
   <g clip-path="url(#a)">
      <path fill="#728DBE" d="M512 1024c282.77 0 512-229.23 512-512S794.77 0 512 0 0 229.23 0 512s229.23 512 512 512Z"/>
      <path fill="#fff" d="M782.97 435.92c-2.02-26.11-4.55-46.2-7.57-60.27-5.55-20.09-14-36.91-25.36-50.47-11.36-13.55-25.1-23.85-41.25-30.89-32.29-14.56-85.27-21.85-158.95-21.85h-73.42c-67.11 0-114.8 4.78-143.06 14.32h-.76c-18.17 6.03-33.43 14.44-45.8 25.23-12.37 10.8-22.33 23.73-29.9 38.79-7.07 15.07-11.98 34.41-14.75 58.01-2.78 23.61-4.16 51.23-4.16 82.86 0 38.67.88 71.06 2.65 97.18 1.77 26.12 4.67 46.46 8.7 61.02 11.6 39.17 34.05 66.04 67.36 80.61 29.76 14.06 83 21.09 159.71 21.09h73.42c33.3 0 61.55-1.25 84.77-3.76 23.21-2.51 42.14-6.03 56.77-10.56v-.75c17.16-5.03 32.04-12.93 44.65-23.73 12.62-10.79 22.71-23.72 30.28-38.79 7.05-15.57 12.1-35.15 15.13-58.76 3.03-23.61 4.54-50.97 4.54-82.11 0-38.67-1.01-71.05-3.03-97.18l.03.01Zm-57.54 97.17c0 25.6-1.01 47.69-3.03 66.26-2.02 18.57-5.8 33.12-11.35 43.66-7.57 20.09-23.71 32.89-48.42 38.4-19.67 5.03-57.49 7.53-113.48 7.53h-72.63c-56.49 0-94.57-2.5-114.23-7.53-24.21-5.51-40.86-18.31-49.93-38.4-9.59-22.08-14.38-58.72-14.38-109.92v-41.42c0-51.2 4.79-87.84 14.38-109.92 8.57-20.57 24.97-33.62 49.18-39.15 20.17-5.02 58.5-7.53 114.99-7.53h72.63c56.49 0 94.57 2.51 114.23 7.53 24.72 5.53 40.59 18.58 47.66 39.15 5.55 10.54 9.33 25.1 11.35 43.67 2.02 18.57 3.03 40.65 3.03 66.25v41.42Zm-51.58-21.57 15.77 31.97-32.1 15.7-32.1 15.7-32.1 15.7-32.1 15.7-32.1 15.7-32.1 15.7-32.1 15.7-32.1 15.7-15.77-31.97-15.77-31.97-15.77-31.97-15.77-31.97-15.77-31.97-15.77-31.96 32.1-15.7 32.1-15.7 15.77 31.97 15.77 31.97 15.77 31.97 15.77 31.97 15.77 31.97 32.1-15.7-15.77-31.97-15.77-31.97-15.77-31.97-15.77-31.97-15.77-31.97 32.1-15.7 32.1-15.7 15.77 31.97 15.77 31.97 15.77 31.97 15.77 31.97 15.77 31.97 32.1-15.7-15.77-31.97-15.77-31.97-15.77-31.97-15.77-31.97-15.77-31.97 32.1-15.7 32.1-15.7 15.77 31.97 15.77 31.97 15.77 31.97 15.77 31.97 15.77 31.97v-.01Z"/>
   </g>
   <defs>
      <clipPath id="a">
         <path fill="#fff" d="M0 0h1024v1024H0z"/>
      </clipPath>
   </defs>
</svg>

<svg width="1024" height="1024" viewBox="0 0 1024 1024" fill="none" xmlns="http://www.w3.org/2000/svg">
<g clip-path="url(#clip0_2_3966)">
<path d="M512 1024C794.77 1024 1024 794.77 1024 512C1024 229.23 794.77 0 512 0C229.23 0 0 229.23 0 512C0 794.77 229.23 1024 512 1024Z" fill="#728DBE"/>
<path d="M782.97 435.92C780.95 409.81 778.42 389.72 775.4 375.65C769.85 355.56 761.4 338.74 750.04 325.18C738.68 311.63 724.94 301.33 708.79 294.29C676.5 279.73 623.52 272.44 549.84 272.44H476.42C409.31 272.44 361.62 277.22 333.36 286.76H332.6C314.43 292.79 299.17 301.2 286.8 311.99C274.43 322.79 264.47 335.72 256.9 350.78C249.83 365.85 244.92 385.19 242.15 408.79C239.37 432.4 237.99 460.02 237.99 491.65C237.99 530.32 238.87 562.71 240.64 588.83C242.41 614.95 245.31 635.29 249.34 649.85C260.94 689.02 283.39 715.89 316.7 730.46C346.46 744.52 399.7 751.55 476.41 751.55H549.83C583.13 751.55 611.38 750.3 634.6 747.79C657.81 745.28 676.74 741.76 691.37 737.23V736.48C708.53 731.45 723.41 723.55 736.02 712.75C748.64 701.96 758.73 689.03 766.3 673.96C773.35 658.39 778.4 638.81 781.43 615.2C784.46 591.59 785.97 564.23 785.97 533.09C785.97 494.42 784.96 462.04 782.94 435.91L782.97 435.92ZM725.43 533.09C725.43 558.69 724.42 580.78 722.4 599.35C720.38 617.92 716.6 632.47 711.05 643.01C703.48 663.1 687.34 675.9 662.63 681.41C642.96 686.44 605.14 688.94 549.15 688.94H476.52C420.03 688.94 381.95 686.44 362.29 681.41C338.08 675.9 321.43 663.1 312.36 643.01C302.77 620.93 297.98 584.29 297.98 533.09V491.67C297.98 440.47 302.77 403.83 312.36 381.75C320.93 361.18 337.33 348.13 361.54 342.6C381.71 337.58 420.04 335.07 476.53 335.07H549.16C605.65 335.07 643.73 337.58 663.39 342.6C688.11 348.13 703.98 361.18 711.05 381.75C716.6 392.29 720.38 406.85 722.4 425.42C724.42 443.99 725.43 466.07 725.43 491.67V533.09ZM673.85 511.52L689.62 543.49L657.52 559.19L625.42 574.89L593.32 590.59L561.22 606.29L529.12 621.99L497.02 637.69L464.92 653.39L432.82 669.09L417.05 637.12L401.28 605.15L385.51 573.18L369.74 541.21L353.97 509.24L338.2 477.28L370.3 461.58L402.4 445.88L418.17 477.85L433.94 509.82L449.71 541.79L465.48 573.76L481.25 605.73L513.35 590.03L497.58 558.06L481.81 526.09L466.04 494.12L450.27 462.15L434.5 430.18L466.6 414.48L498.7 398.78L514.47 430.75L530.24 462.72L546.01 494.69L561.78 526.66L577.55 558.63L609.65 542.93L593.88 510.96L578.11 478.99L562.34 447.02L546.57 415.05L530.8 383.08L562.9 367.38L595 351.68L610.77 383.65L626.54 415.62L642.31 447.59L658.08 479.56L673.85 511.53V511.52Z" fill="white"/>
</g>
<defs>
<clipPath id="clip0_2_3966">
<rect width="1024" height="1024" fill="white"/>
</clipPath>
</defs>
</svg>
